src/assets/img/user/login-title.svg

<?xml version="1.0" encoding="UTF-8"?>
<svg width="187px" height="56px" viewBox="0 0 187 56" version="1.1" xmlns="http://www.w3.org/2000/svg" xmlns:xlink="http://www.w3.org/1999/xlink">
    <!-- Generator: Sketch 55.2 (78181) - https://sketchapp.com -->
    <title>编组 9备份</title>
    <desc>Created with Sketch.</desc>
    <defs>
        <filter x="-11.2%" y="-43.5%" width="122.3%" height="187.0%" filterUnits="objectBoundingBox" id="filter-1">
            <feOffset dx="0" dy="6" in="SourceAlpha" result="shadowOffsetOuter1"></feOffset>
            <feGaussianBlur stdDeviation="2" in="shadowOffsetOuter1" result="shadowBlurOuter1"></feGaussianBlur>
            <feColorMatrix values="0 0 0 0 0.778711347   0 0 0 0 0.796542139   0 0 0 0 0.868914176  0 0 0 1 0" type="matrix" in="shadowBlurOuter1" result="shadowMatrixOuter1"></feColorMatrix>
            <feMerge>
                <feMergeNode in="shadowMatrixOuter1"></feMergeNode>
                <feMergeNode in="SourceGraphic"></feMergeNode>
            </feMerge>
        </filter>
        <linearGradient x1="50.2693386%" y1="47.3531016%" x2="50.2696431%" y2="53.5857698%" id="linearGradient-2">
            <stop stop-color="#032EDA" offset="0%"></stop>
            <stop stop-color="#5E7DFF" offset="36.8823902%"></stop>
            <stop stop-color="#4264F4" offset="100%"></stop>
        </linearGradient>
        <linearGradient x1="65.5553213%" y1="115.73587%" x2="65.5553213%" y2="12.8399712%" id="linearGradient-3">
            <stop stop-color="#5D7CFF" offset="0%"></stop>
            <stop stop-color="#2F54EB" offset="100%"></stop>
        </linearGradient>
    </defs>
    <g id="页面1" stroke="none" stroke-width="1" fill="none" fill-rule="evenodd">
        <g id="u001手机、邮箱、用户账号登录" transform="translate(-853.000000, -220.000000)">
            <g id="login" transform="translate(748.000000, 175.000000)">
                <g id="编组-9备份" transform="translate(109.000000, 45.000000)">
                    <g id="编组-12">
                        <g id="编组-2" filter="url(#filter-1)">
                            <path d="M64.3068609,41.3704044 C62.2062865,41.3704044 59.520693,40.912382 56.25,39.9963235 L56.25,35.5992647 C59.7744537,37.2340768 62.6715112,38.0514706 64.9412594,38.0514706 C66.6893884,38.0514706 68.0956244,37.5934482 69.1600094,36.6773897 C70.2243944,35.7613312 70.7565789,34.55638 70.7565789,33.0625 C70.7565789,31.8363909 70.4076633,30.7935092 69.7098214,29.9338235 C69.0119796,29.0741379 67.7255733,28.1158141 65.8505639,27.0588235 L63.693609,25.8115809 C61.029122,24.2895144 59.1506164,22.8555521 58.0580357,21.5096507 C56.9654551,20.1637494 56.4191729,18.5959036 56.4191729,16.8060662 C56.4191729,14.3961277 57.2932243,12.4125384 59.0413534,10.855239 C60.7894824,9.29793952 63.0169038,8.51930147 65.7236842,8.51930147 C68.1344105,8.51930147 70.679028,8.92095187 73.3576128,9.72426471 L73.3576128,13.7830882 C70.0587241,12.4865131 67.5986923,11.8382353 65.9774436,11.8382353 C64.4407818,11.8382353 63.1719975,12.2469322 62.1710526,13.0643382 C61.1701078,13.8817443 60.6696429,14.910533 60.6696429,16.1507353 C60.6696429,17.1936327 61.0361805,18.1167239 61.7692669,18.9200368 C62.5023533,19.7233496 63.8416256,20.6816734 65.7871241,21.7950368 L68.0286654,23.0634191 C70.7354459,24.5995788 72.6245247,26.0511574 73.6959586,27.4181985 C74.7673926,28.7852397 75.3031015,30.4270738 75.3031015,32.34375 C75.3031015,35.0637391 74.2986473,37.2481535 72.2897086,38.8970588 C70.28077,40.5459641 67.6198474,41.3704044 64.3068609,41.3704044 Z M81.4990602,40.5882353 L81.4990602,9.30147059 L85.9398496,9.30147059 L85.9398496,37.2693015 L100.023496,37.2693015 L100.023496,40.5882353 L81.4990602,40.5882353 Z M112.034774,40.5882353 L112.034774,12.6204044 L100.932801,12.6204044 L100.932801,9.30147059 L127.577538,9.30147059 L127.577538,12.6204044 L116.475564,12.6204044 L116.475564,40.5882353 L112.034774,40.5882353 Z M131.976034,40.5882353 L131.976034,9.30147059 L149.464286,9.30147059 L149.464286,12.6204044 L136.416823,12.6204044 L136.416823,22.6617647 L147.349624,22.6617647 L147.349624,25.9384191 L136.416823,25.9384191 L136.416823,37.2693015 L150.37359,37.2693015 L150.37359,40.5882353 L131.976034,40.5882353 Z M155.448778,40.5882353 L155.448778,9.30147059 L159.614662,9.30147059 L159.614662,24.6911765 L172.281485,9.30147059 L176.743421,9.30147059 L164.478383,24.2261029 L178.921523,40.5882353 L173.296523,40.5882353 L159.614662,24.7334559 L159.614662,40.5882353 L155.448778,40.5882353 Z" id="SLTEK" fill="url(#linearGradient-2)" fill-rule="nonzero"></path>
                            <g id="编组" fill="url(#linearGradient-3)">
                                <path d="M13.499748,12.5097975 C1.51329215,4.45531807 13.7322759,10.9215285 14.2759667,10.506332 C17.7741206,7.83492193 4.61907605,2.96539057 0.455395189,0.494197162 C-1.30028171,-0.547817662 2.32723118,0.100800806 6.09974742,2.03646919 C15.2370667,6.72480419 19.665209,7.09725727 19.3993612,6.72480419 C18.7806922,5.85804833 7.04348307,0.71236573 7.665163,0.494197162 C8.3236864,0.263098973 20.804618,5.10255213 21.5430588,5.10255213 C23.918483,5.10255213 26.2808659,6.77925373 26.9407861,8.19230451 C26.9766635,8.19251007 27.0125288,8.19280149 27.0483814,8.19317891 C27.0171409,8.20279726 26.9858798,8.21253917 26.9546031,8.22240351 C27.2463745,8.86926982 27.176892,9.45767588 26.5827527,9.7999482 C25.5978875,10.3673102 34.7962584,11.2318724 35.7966359,10.140566 C36.5147415,9.35718858 37.0702974,11.5671385 36.9124524,11.8447328 C36.6093658,12.3777565 36.0096614,11.1478926 30.2870357,12.2212951 C28.1559296,12.6210302 29.0315581,13.3796458 30.6161155,13.3796458 C34.5412433,13.3796458 36.2353277,13.5652301 34.8738892,14.3315063 C30.8292046,16.6080288 24.5482026,13.2514509 18.510235,14.7160193 C17.8570992,14.8744438 17.2068072,15.0892809 16.5624971,15.3737627 C15.7542561,16.2057255 15.0324371,17.043689 14.3974383,17.8844232 C12.8917218,19.8779819 11.7298303,22.1209675 11.1929348,24.4664413 C11.470649,24.3919966 11.7587989,24.339554 12.0562461,24.3108874 C15.43627,23.9851357 18.7368848,26.8528726 19.4283756,30.716157 C19.9843642,33.8224052 18.6843068,36.6264862 16.3965025,37.7754924 C20.9135251,41.6513699 26.0264358,42.1279997 29.8163317,41.3546721 C29.401054,41.2869497 28.9743279,41.1940024 28.5354229,41.075954 C23.2311133,39.6492856 20.0762848,34.2026668 21.4889136,28.910583 C22.9015511,23.6185015 28.3467105,20.484959 33.651023,21.9116166 C34.9334434,22.2565411 36.1655496,22.7918654 37.2585343,23.4909272 C36.4615958,23.2787346 35.570827,23.1808689 34.5885939,23.2236014 C32.3551961,23.3207664 30.4392524,23.6871768 28.8704614,24.286208 C25.9400696,25.4051565 23.4860929,27.698653 23.7511014,31.3408568 C24.1518159,36.8481664 28.069727,39.0921993 30.6094698,39.495417 C30.9671324,39.5522007 31.3888728,39.5606238 31.8561623,39.5207869 C33.102914,39.2815157 34.2562665,38.5991587 35.0659937,37.5047005 C36.0937564,36.115537 36.342017,34.3678009 35.8921616,32.7797305 C36.8222277,33.9987981 37.2118019,35.5292854 37.0007745,36.9884376 C39.8672798,33.8458092 42.5762599,29.1281319 43.3082338,23.9877019 C43.307791,25.9675062 43.0388946,27.9632792 42.9147385,29.5782006 C42.2781779,37.8580618 38.5020491,42.7878299 30.6800696,45.1744232 C20.7470298,48.2051196 10.2328919,42.6260049 7.19608123,32.7131183 C6.79190874,31.3937985 6.54055438,30.0642056 6.43191685,28.7432989 C4.64992125,28.7730961 2.86713061,27.9812795 1.67605605,26.4449155 C-0.326775425,23.8613263 0.102061506,20.1506874 2.63389803,18.1569109 C3.64485109,17.3608469 4.8382305,16.9588725 6.03468012,16.9276594 C5.60656437,17.1064834 5.19541015,17.3457243 4.81292839,17.6469054 C2.5071487,19.4626662 2.11660078,22.841998 3.94060802,25.1949097 C4.59436824,26.0381932 5.44387328,26.6351741 6.37099026,26.9704869 C6.44657106,21.3230485 9.09304056,15.9956465 13.499748,12.5097975 Z M14.9054142,36.3438738 C16.3616054,35.0863624 17.1072404,32.944464 16.690402,30.6156329 C16.1422407,27.5531154 13.7657073,25.1838244 11.1118532,24.8453532 C10.491975,27.9598617 10.9906457,31.2396682 13.2573646,34.3453472 C13.7903588,35.0756136 14.3410958,35.7402354 14.9054142,36.3438738 Z" id="形状结合"></path>
                            </g>
                        </g>
                    </g>
                </g>
            </g>
        </g>
    </g>
</svg>

<svg width="187" height="56" viewBox="0 0 187 56" xmlns="http://www.w3.org/2000/svg"><defs><filter x="-11.2%" y="-43.5%" width="122.3%" height="187%" filterUnits="objectBoundingBox" id="a"><feOffset dy="6" in="SourceAlpha" result="shadowOffsetOuter1"/><feGaussianBlur stdDeviation="2" in="shadowOffsetOuter1" result="shadowBlurOuter1"/><feColorMatrix values="0 0 0 0 0.778711347 0 0 0 0 0.796542139 0 0 0 0 0.868914176 0 0 0 1 0" in="shadowBlurOuter1" result="shadowMatrixOuter1"/><feMerge><feMergeNode in="shadowMatrixOuter1"/><feMergeNode in="SourceGraphic"/></feMerge></filter><linearGradient x1="50.269%" y1="47.353%" x2="50.27%" y2="53.586%" id="b"><stop stop-color="#032EDA" offset="0%"/><stop stop-color="#5E7DFF" offset="36.882%"/><stop stop-color="#4264F4" offset="100%"/></linearGradient><linearGradient x1="65.555%" y1="115.736%" x2="65.555%" y2="12.84%" id="c"><stop stop-color="#5D7CFF" offset="0%"/><stop stop-color="#2F54EB" offset="100%"/></linearGradient></defs><g filter="url(#a)" transform="translate(4)" fill="none" fill-rule="evenodd"><path d="M64.307 41.37c-2.1 0-4.786-.458-8.057-1.374V35.6c3.524 1.635 6.422 2.452 8.691 2.452 1.748 0 3.155-.458 4.219-1.374 1.064-.916 1.597-2.12 1.597-3.614 0-1.227-.35-2.27-1.047-3.13-.698-.859-1.984-1.817-3.86-2.874l-2.156-1.247c-2.665-1.522-4.543-2.956-5.636-4.302-1.093-1.346-1.639-2.914-1.639-4.704 0-2.41.874-4.393 2.622-5.95 1.748-1.558 3.976-2.337 6.683-2.337 2.41 0 4.955.402 7.634 1.205v4.06c-3.3-1.297-5.76-1.946-7.38-1.946-1.537 0-2.806.409-3.807 1.226-1 .818-1.501 1.847-1.501 3.087 0 1.043.366 1.966 1.1 2.769.732.803 2.072 1.762 4.017 2.875l2.242 1.268c2.706 1.537 4.596 2.988 5.667 4.355 1.071 1.367 1.607 3.01 1.607 4.926 0 2.72-1.004 4.904-3.013 6.553-2.01 1.649-4.67 2.473-7.983 2.473zm17.192-.782V9.301h4.44V37.27h14.084v3.32H81.5zm30.536 0V12.62h-11.102V9.301h26.645v3.32h-11.102v27.967h-4.441zm19.941 0V9.301h17.488v3.32h-13.047v10.04h10.933v3.277h-10.933V37.27h13.957v3.32h-18.398zm23.473 0V9.301h4.166v15.39l12.666-15.39h4.462l-12.265 14.925 14.444 16.362h-5.625l-13.682-15.855v15.855h-4.166z" fill="url(#b)" fill-rule="nonzero"/><path d="M13.5 12.51c-11.987-8.055.232-1.588.776-2.004C17.774 7.835 4.619 2.966.456.494-1.3-.548 2.326.101 6.1 2.036c9.137 4.689 13.565 5.061 13.3 4.689C18.78 5.858 7.042.712 7.664.495c.659-.232 13.14 4.608 13.878 4.608 2.375 0 4.738 1.676 5.398 3.09h.107l-.093.03c.291.646.222 1.235-.372 1.577-.985.567 8.213 1.432 9.214.34.718-.783 1.273 1.427 1.115 1.705-.303.533-.902-.697-6.625.376-2.131.4-1.255 1.159.33 1.159 3.924 0 5.618.185 4.257.952-4.045 2.276-10.326-1.08-16.364.384-.653.158-1.303.373-1.948.658-.808.832-1.53 1.67-2.165 2.51-1.505 1.994-2.667 4.237-3.204 6.582.278-.074.566-.126.863-.155 3.38-.326 6.68 2.542 7.372 6.405.556 3.106-.744 5.91-3.031 7.06 4.517 3.875 9.63 4.352 13.42 3.579-.416-.068-.843-.161-1.282-.279-5.304-1.427-8.459-6.873-7.046-12.165 1.413-5.292 6.858-8.426 12.162-7 1.282.346 2.515.88 3.608 1.58a8.854 8.854 0 0 0-2.67-.267c-2.234.097-4.15.463-5.719 1.062-2.93 1.12-5.384 3.413-5.119 7.055.4 5.507 4.319 7.751 6.858 8.154.358.057.78.066 1.247.026a5.184 5.184 0 0 0 3.21-2.016c1.028-1.39 1.276-3.137.826-4.725a5.64 5.64 0 0 1 1.109 4.208c2.866-3.142 5.575-7.86 6.307-13 0 1.98-.27 3.975-.393 5.59-.637 8.28-4.413 13.21-12.235 15.596-9.933 3.031-20.447-2.548-23.484-12.46a18.805 18.805 0 0 1-.764-3.97 5.889 5.889 0 0 1-4.756-2.3c-2.003-2.583-1.574-6.293.958-8.287a5.716 5.716 0 0 1 3.4-1.23c-.427.18-.839.419-1.221.72-2.306 1.816-2.696 5.195-.872 7.548a5.39 5.39 0 0 0 2.43 1.775A18.807 18.807 0 0 1 13.5 12.51zm1.405 23.834c1.457-1.258 2.202-3.4 1.785-5.728-.548-3.063-2.924-5.432-5.578-5.77-.62 3.114-.121 6.394 2.145 9.5.533.73 1.084 1.394 1.648 1.998z" fill="url(#c)"/></g></svg>
